X:193
T:Liffey Banks, The
R:reel
Z:transcribed by Dave Marshall
M:C|
K:G
|: G2GF GBdB | cBce g2dc | B~G3 ABGE | DEGB AGEF |
GDB,D GBdB | cBce g2dc | | B~G3 ABGE | DEGB AGG2 :|
| ~g3e d2Bd | gabg agfa | ~g3e d2Bd | gabg a2fa |
~g3e d2Bd | gabg agfa | ~g3f e3g | dedc Bdef |
| g~d3 B~d3 | gabg agfa | ~g3e d2Bd | gabg a2fa |
~g3e d2Bd | gabg agfa | ~g3f e3g | dedc BcdB |
